X:55
T:Cronins
T:Reavy's
R:Reel
O:Ireland
B:Music from Ireland Vol. 3
S:My arrangement from various sources
Z:Transcription, arrangement, chords:Mike Long
M:C|
L:1/8
K:G
DE|"G"~G2 BG dGBG|"C"cBcd efge|"G"dcBG dGBG|\
"D"(3(FED) AD BDAD|"G"~G2 BG dGBG|
"C"cBcd efge|"G"dgfg "D"ecAF|"G"GB"D"AF "G"G2:|\
|:Bd|"G"~g2 fg edBc|"C"degb agdg|
"G"bagf gdBG|"D"(3(FED) AD BDAD|"G"~G2 BG dGBG|\
"C"cBcd efge|"G"dgfg "D"ecAF|"G"GB"D"AF "G"G2:|
